**kern	**kern
*staff2	*staff1
*clefF4	*clefG2
*k[]	*k[]
*M3/4	*M3/4
*C:	*C:
=-	=-
8EE	4G 4c 4e
8DDJ)	.
=257	=257
8r	2G 2c 2e
(8BBBL	.
8CC)	.
8CC'	.
8CC'	4E 4G 4c
8CC'J	.
=258	=258
8r	2A 2c 2f
(8BBL	.
8C)	.
8C'	.
8C'	4G 4c 4e
8C'J	.
*clefG2	*
=259	=259
8r	2G 2c 2e
(8bL	.
8cc)	.
8cc'	.
8cc'	4F 4G 4d
8cc'J	.
=260	=260
8r	4E 4G 4c
(8bbL	.
8ccc)	4r
8ccc'	.
8ccc'	4E 4G 4c
8ccc'J	.
=261	=261
8r	2G 2B 2d
(8ff#L	.
8gg)	.
8gg'	.
8gg'	4G 4c 4e
8gg'J	.
=262	=262
8r	2G 2d 2f
(8f#L	.
8g)	.
8g'	.
8g'	4F 4B
8g'J	.
=263	=263
8r	2.F 2.B 2.d
*clefF4	*
(8FF#L	.
8GG)	.
8GG'	.
8GG'	.
8GG'J	.
=264	=264
4CC 4C	4E 4G 4c
4r	4r
=	=
*-	*-
